assets/fc/fc-upload.svg

<svg xmlns="http://www.w3.org/2000/svg" width="100%" height="100%" viewBox="0 0 48 48"><g fill="#009688"><path d="M24 10.9L35 24H13zM20 40h8v4h-8zM20 34h8v4h-8z"/><path d="M20 21h8v11h-8zM6 4h36v4H6z"/></g></svg>

<svg xmlns="http://www.w3.org/2000/svg" width="100%" height="100%" viewBox="0 0 48 48"><g fill="#009688"><path d="M24 10.9L35 24 13 24zM20 40H28V44H20zM20 34H28V38H20z"/><path d="M20 21H28V32H20zM6 4H42V8H6z"/></g></svg>
